X:1
T: Lady Elibank's Favourite
C:
R:Strathspey
Q: 128
K:Gm
M:4/4
L:1/16
|:B2|GG3 G3F D2F2 F2B2|G2G2 G2A2 B3c d2g2|GG3 G3F D2F2 F2B2|G3A B2c2 d2g2 f2g2|
GG3 G3F D2F2 F2B2|G2G2 G2A2 B3c d2g2|GG3 G3F D2F2 F2B2|G,3A, B,2C2 D2G2 G2b2|
g3d g2b2 f3c f2a2|g3d g2b2 g2a2 f2g2|d2f2 c2f2 A2F2 F2A2|G3A B3c d2g2 g2b2|
g3d g2b2 f3c f2a2|g3d g2b2 g2a2 f2g2|d2f2 c2f2 A2F2 F2A2|G,3A, B,2C2 D2G2 G2:|
